T: Doctor MacLeod Of Alnwick
M: 4/4
L: 1/8
K: Amix
P: C
|: (3agf |ecAc ecAe | ceAc e2 (3gfe | d2 GB dBGd | Bd (3GAB d2 af | ~
P: D
|: (3Bcd |ea^ga eAc<f | ea^g<a (3efe (3edc | Bgfg d<GB<e | d<gfg (3ded cd | ~
